X:1
T:Glastonbury, 76.76.76 D
T:Glastonbury, 76.76.76 D
T:John Bacchus Dykes (1823-1876)
T:Public Domain Courtesy of the Cyber Hymnal™
C:John Bacchus Dykes (1823-1876)
Z:Public Domain
Z:Courtesy of the Cyber Hymnal™
%%score ( 1 2 ) ( 3 4 )
L:1/8
Q:1/4=108
M:4/4
K:Ab
V:1 treble 
V:2 treble 
V:3 bass 
V:4 bass 
V:1
 [Ec]2 [Cc]2 [DB]2 [EA]2 | [EF]2 [DA]2 [CE]4 | [B,E]2 E2 [CE]2 [Ec]2 | [=DB]3 [DA] [EB]4 | %4
 [F=B]2 [FB]2 [=Ec]2 [Ec]2 | [Ed]3 [Ed] [Ec]4 | [Ee]2 [Ec]2 [=DF]2 (GA) | B3 z A [EG]4 | %8
 [C_G]2 [CG]2 F2 [EF]2 | [Dd]2 [FB]2 (A2 G2) | [Ee]2 [=Ec]2 [FA]2 F2 | ([CE][EA]) [DG]2 [CA]4 |] %12
V:2
 x8 | x8 | x2 (CD) x4 | x8 | x8 | x8 | x6 E2 | E2 D2 x5 | x4 F2 x2 | x4 E4 | x6 (B,=B,) | x8 |] %12
V:3
 [A,C]2 [A,,A,]2 [B,,G,]2 [C,A,]2 | [D,A,]2 [F,A,]2 A,4 | [E,G,]2 (A,B,) A,2 [C,A,]2 | %3
 [F,A,]3 [F,A,] [E,G,]4 | [=D,G,]2 [D,G,]2 [C,G,]2 [C,G,]2 | [B,,G,]3 [B,,G,] [A,,A,]4 | %6
 [A,,C]2 [A,,A,]2 [A,,A,]2 [B,,G,]2 | [B,,F,]2 [B,,B,]2 [E,B,]4 x | %8
 [A,,A,]2 [A,,A,]2 [D,A,]2 [C,=A,]2 | [B,,B,]2 [B,,D]2 (C2 B,2) | %10
 [C,A,]2 [C,A,]2 [D,A,]2 ([D,B,][=D,A,]) | (A,C) [E,B,]2 [A,,A,]4 |] %12
V:4
 x8 | x4 A,4 | x2 E,2 A,2 x2 | x8 | x8 | x8 | x8 | x9 | x8 | x4 E,4 | x8 | E,2 x6 |] %12

